apps/earn-protocol-landing-page/public/img/landing-page/auditor-logos/chainsecurity.svg

<svg width="197" height="21" viewBox="0 0 197 21" fill="none" xmlns="http://www.w3.org/2000/svg">
  <path
    d="M14.9314 8.44059L14.9959 8.47741L15.051 8.44059L16.459 7.62162L16.6338 7.52042L16.459 7.40998L12.4193 4.8978L12.3916 4.87939H12.3548H11.5358H11.499L11.4806 4.8978L7.66177 7.09708L7.59735 7.13389V7.20752V8.63383V8.70745L7.66177 8.74426L13.8824 12.3239L11.9684 13.4374L8.95926 11.6245L8.89487 11.5877L8.83042 11.6245L7.3673 12.5632L7.20166 12.6644L7.3673 12.7656L11.4806 15.3146L11.5083 15.333H11.545H12.3732H12.41L12.4377 15.3146L16.2381 13.1153L16.3025 13.0785V13.0048V11.5877V11.5141L16.2381 11.4773L10.0175 7.90688L11.95 6.79341L14.9314 8.44059Z"
    fill="#FFFBFD" />
  <path
    d="M15.0507 16.0786L14.9863 16.0417L14.9219 16.0786L11.9404 17.8086L5.25974 13.9621V6.25992L11.9404 2.40427L14.9404 4.03304L14.9956 4.06064L15.0507 4.03304L16.7899 3.10363L16.9924 3.0024L16.7899 2.89198L12.4006 0.499437L12.3822 0.490234H12.3545H11.5356H11.4987L11.4803 0.508639L3.85181 4.90724L3.82421 4.92564L3.80581 4.95325L3.39171 5.66181L3.38251 5.68942V5.72622V14.5142V14.551L3.40091 14.5786L3.81501 15.2872L3.83341 15.3148L3.86102 15.3332L11.4803 19.7134L11.508 19.7318H11.5448H12.3638H12.4006L12.4282 19.7134L16.6979 17.2288L16.882 17.1276L16.6979 17.0264L15.0507 16.0786Z"
    fill="#FFFBFD" />
  <g clip-path="url(#clip0_11580_28651)">
    <path
      d="M27.1918 16.6768C26.1231 16.0587 25.299 15.1831 24.7324 14.05C24.1658 12.9168 23.8697 11.6163 23.8697 10.1355C23.8697 8.64186 24.1658 7.32846 24.7453 6.19533C25.3247 5.0622 26.1488 4.19948 27.2176 3.58141C28.2863 2.96333 29.5353 2.6543 30.9646 2.6543C32.0849 2.6543 33.0764 2.8732 33.9648 3.29812C34.8534 3.72305 35.5744 4.32824 36.1281 5.1137C36.6818 5.89917 37.0295 6.82628 37.1583 7.86927L34.3125 8.02379C34.1065 7.05805 33.6945 6.31122 33.0764 5.78329C32.4583 5.25535 31.6986 4.98494 30.7844 4.98494C29.9474 4.98494 29.2263 5.20384 28.6211 5.64164C28.0159 6.07944 27.5524 6.68463 27.2305 7.45723C26.9085 8.22982 26.754 9.13117 26.754 10.1355C26.754 11.1399 26.9085 12.0284 27.2305 12.8139C27.5524 13.5865 28.0159 14.1916 28.6211 14.6294C29.2263 15.0544 29.9474 15.2732 30.7844 15.2732C31.6986 15.2732 32.4583 15.0158 33.0635 14.4878C33.6687 13.9599 34.0807 13.2131 34.2867 12.2344L37.1325 12.376C36.9908 13.4448 36.6432 14.3719 36.0895 15.1574C35.5358 15.9428 34.8147 16.5609 33.9263 16.9729C33.0377 17.3979 32.0463 17.6039 30.9389 17.6039C29.5225 17.6039 28.2606 17.2948 27.1918 16.6768Z"
      fill="#FFFBFD" />
    <path
      d="M39.0774 2.75684H41.8973V8.82166H48.1553V2.75684H50.9881V17.4875H48.1553V11.2424H41.8973V17.4875H39.0774V2.75684Z"
      fill="#FFFBFD" />
    <path
      d="M62.8992 14.0107H56.5124L55.3794 17.4873H52.4307L57.8259 2.76953H61.7404L67.1227 17.4873H64.0709L62.8992 14.0107ZM57.2722 11.7573H62.1524L59.8604 4.94566H59.5385L57.2722 11.7573Z"
      fill="#FFFBFD" />
    <path
      d="M73.5857 5.17744V15.0666H76.2383V17.4745H68.1004V15.0666H70.753V5.17744H68.1004V2.76953H76.2383V5.17744H73.5857Z"
      fill="#FFFBFD" />
    <path
      d="M78.3881 2.76953H81.6458L88.6249 13.2252H88.9339V2.76953H91.7281V17.4873H88.4575L81.4655 7.01877H81.1694V17.4873H78.3881V2.76953Z"
      fill="#FFFBFD" />
    <path
      d="M96.609 17.0114C95.7204 16.6123 95.0251 16.0586 94.5229 15.3375C94.0208 14.6164 93.7632 13.7795 93.7504 12.8266L96.5188 12.7494C96.5703 13.5734 96.8794 14.2172 97.4459 14.6679C98.0125 15.1315 98.7722 15.3632 99.7122 15.3632C100.575 15.3632 101.27 15.183 101.772 14.8353C102.275 14.4876 102.532 13.9854 102.532 13.3546C102.532 12.8652 102.365 12.466 102.043 12.1827C101.721 11.8866 101.309 11.6677 100.807 11.5261C100.304 11.3844 99.5963 11.217 98.6949 11.0497C97.6004 10.8307 96.7248 10.5732 96.0681 10.2771C95.4114 9.98089 94.9221 9.58173 94.5745 9.06666C94.2396 8.5516 94.0723 7.88203 94.0723 7.04505C94.0723 6.15657 94.3169 5.38399 94.8063 4.71441C95.2955 4.04483 95.9522 3.52977 96.7892 3.16923C97.6262 2.80869 98.5533 2.62842 99.5705 2.62842C100.626 2.62842 101.566 2.80869 102.391 3.18211C103.215 3.55553 103.871 4.07058 104.348 4.74016C104.824 5.40974 105.069 6.19521 105.108 7.08368L102.352 7.2382C102.287 6.49137 102.004 5.91192 101.515 5.49988C101.026 5.08782 100.382 4.8818 99.5834 4.8818C98.7722 4.8818 98.1284 5.0492 97.6648 5.38399C97.1883 5.71877 96.9566 6.19521 96.9566 6.81328C96.9566 7.28971 97.0982 7.66312 97.3815 7.94641C97.6648 8.21681 98.0383 8.42284 98.4889 8.5516C98.9395 8.68037 99.5705 8.83488 100.395 8.9894L100.652 9.04091C101.734 9.24693 102.622 9.50446 103.292 9.80062C103.961 10.0968 104.489 10.4959 104.85 10.9982C105.21 11.5003 105.391 12.1699 105.391 12.9812C105.391 13.9082 105.146 14.7194 104.644 15.4147C104.142 16.1101 103.459 16.6509 102.596 17.0243C101.734 17.3977 100.755 17.5909 99.6735 17.5909C98.5146 17.6038 97.4974 17.4107 96.609 17.0114Z"
      fill="#FFFBFD" />
    <path
      d="M107.348 2.76953H117.057V5.17744H110.168V8.92449H115.795V11.1779H110.168V15.0666H117.301V17.4745H107.348V2.76953Z"
      fill="#FFFBFD" />
    <path
      d="M121.757 16.6768C120.688 16.0587 119.865 15.1831 119.298 14.05C118.731 12.9168 118.435 11.6163 118.435 10.1355C118.435 8.64186 118.731 7.32846 119.311 6.19533C119.891 5.0622 120.714 4.19948 121.783 3.58141C122.852 2.96333 124.101 2.6543 125.53 2.6543C126.651 2.6543 127.642 2.8732 128.53 3.29812C129.419 3.72305 130.14 4.32824 130.693 5.1137C131.247 5.89917 131.595 6.82628 131.724 7.86927L128.878 8.02379C128.672 7.05805 128.26 6.31122 127.642 5.78329C127.024 5.25535 126.264 4.98494 125.35 4.98494C124.513 4.98494 123.792 5.20384 123.186 5.64164C122.582 6.07944 122.118 6.68463 121.796 7.45723C121.474 8.22982 121.32 9.13117 121.32 10.1355C121.32 11.1399 121.474 12.0284 121.796 12.8139C122.118 13.5865 122.582 14.1916 123.186 14.6294C123.792 15.0544 124.513 15.2732 125.35 15.2732C126.264 15.2732 127.024 15.0158 127.629 14.4878C128.234 13.9599 128.647 13.2131 128.853 12.2344L131.698 12.376C131.556 13.4448 131.208 14.3719 130.655 15.1574C130.102 15.9428 129.381 16.5609 128.492 16.9729C127.604 17.3979 126.612 17.6039 125.504 17.6039C124.088 17.6039 122.826 17.2948 121.757 16.6768Z"
      fill="#FFFBFD" />
    <path
      d="M135.033 15.9937C134.029 14.9121 133.526 13.3411 133.526 11.2551V2.76953H136.372V11.4097C136.372 12.6973 136.616 13.6501 137.118 14.2683C137.609 14.8863 138.393 15.2082 139.475 15.2082C140.557 15.2082 141.343 14.8992 141.845 14.2683C142.347 13.6501 142.592 12.6973 142.592 11.4097V2.76953H145.437V11.2551C145.437 13.3411 144.935 14.9121 143.93 15.9937C142.926 17.0753 141.445 17.6161 139.488 17.6161C137.518 17.6033 136.037 17.0753 135.033 15.9937Z"
      fill="#FFFBFD" />
    <path
      d="M154.463 12.311H150.754V17.4873H147.935V2.76953H154.154C155.197 2.76953 156.111 2.96268 156.91 3.36185C157.707 3.76102 158.326 4.31471 158.763 5.02291C159.201 5.744 159.421 6.58097 159.421 7.53383C159.421 8.22916 159.266 8.86011 158.969 9.42668C158.674 9.99324 158.222 10.4568 157.644 10.8174C157.064 11.1779 156.369 11.4097 155.544 11.5127V11.8346H157.321L160.218 17.4745H157.103L154.463 12.311ZM153.909 9.98036C154.707 9.98036 155.351 9.76147 155.815 9.32367C156.291 8.88587 156.523 8.29354 156.523 7.53383C156.523 7.03165 156.42 6.59385 156.201 6.23331C155.982 5.87277 155.687 5.57661 155.287 5.38346C154.888 5.19031 154.437 5.0873 153.909 5.0873H150.741V9.98036H153.909Z"
      fill="#FFFBFD" />
    <path
      d="M166.721 5.17744V15.0666H169.374V17.4745H161.236V15.0666H163.889V5.17744H161.236V2.76953H169.374V5.17744H166.721Z"
      fill="#FFFBFD" />
    <path
      d="M175.014 5.17744H170.636V2.76953H182.237V5.17744H177.872V17.4745H175.026V5.17744H175.014Z"
      fill="#FFFBFD" />
    <path
      d="M191.162 12.6717V17.4875H188.33V12.7103L182.934 2.75684H186.256L189.566 9.63288H189.874L193.402 2.75684H196.558L191.162 12.6717Z"
      fill="#FFFBFD" />
  </g>
  <defs>
    <clipPath id="clip0_11580_28651">
      <rect width="173.586" height="15.3402" fill="white" transform="translate(23.4139 2.42725)" />
    </clipPath>
  </defs>
</svg>

<svg xmlns="http://www.w3.org/2000/svg" width="197" height="21" fill="none" xmlns:v="https://vecta.io/nano"><path d="M14.931 8.441l.065.037.055-.037 1.408-.819.175-.101-.175-.11-4.04-2.512-.028-.018h-.037-.819-.037l-.018.018-3.819 2.199-.064.037v.074 1.426.074l.064.037 6.221 3.58-1.914 1.114-3.009-1.813-.064-.037-.064.037-1.463.939-.166.101.166.101 4.113 2.549.028.018h.037.828.037l.028-.018 3.8-2.199.064-.037v-.074-1.417-.074l-.064-.037-6.221-3.57 1.932-1.113 2.981 1.647zm.12 7.638l-.064-.037-.064.037-2.982 1.73-6.681-3.846V6.26l6.681-3.856 3 1.629.055.028.055-.028 1.739-.929.203-.101-.203-.11L12.401.499 12.382.49h-.028-.819-.037l-.018.018-7.628 4.399-.028.018-.018.028-.414.709-.009.028v.037 8.788.037l.018.028.414.709.018.028.028.018 7.619 4.38.028.018h.037.819.037l.028-.018 4.27-2.485.184-.101-.184-.101-1.647-.948z" fill="#fffbfd"/><g clip-path="url(#A)" fill="#fffbfd"><path d="M27.192 16.677a6.14 6.14 0 0 1-2.459-2.627c-.567-1.133-.863-2.434-.863-3.915 0-1.494.296-2.807.876-3.94a6.22 6.22 0 0 1 2.472-2.614c1.068-.618 2.318-.927 3.747-.927 1.12 0 2.112.219 3 .644a5.5 5.5 0 0 1 2.163 1.816c.554.785.901 1.713 1.03 2.756l-2.846.155c-.206-.966-.618-1.713-1.236-2.24s-1.378-.798-2.292-.798c-.837 0-1.558.219-2.163.657S27.552 6.687 27.23 7.46s-.476 1.674-.476 2.678.154 1.893.476 2.678c.322.773.785 1.378 1.391 1.816.605.425 1.326.644 2.163.644.914 0 1.674-.257 2.279-.785s1.017-1.275 1.223-2.253l2.846.142c-.142 1.069-.489 1.996-1.043 2.781s-1.275 1.403-2.163 1.815c-.889.425-1.88.631-2.987.631-1.416 0-2.678-.309-3.747-.927zm11.885-13.92h2.82v6.065h6.258V2.757h2.833v14.731h-2.833v-6.245h-6.258v6.245h-2.82V2.757zm23.822 11.254h-6.387l-1.133 3.477H52.43L57.826 2.77h3.915l5.382 14.718h-3.052l-1.172-3.477zm-5.627-2.253h4.88L59.86 4.946h-.322l-2.266 6.812zm16.314-6.581v9.889h2.653v2.408H68.1v-2.408h2.653V5.177H68.1V2.77h8.138v2.408h-2.653zm4.802-2.407h3.258l6.979 10.456h.309V2.77h2.794v14.718h-3.271L81.466 7.019h-.296v10.469h-2.781V2.77zm18.221 14.241c-.889-.399-1.584-.953-2.086-1.674s-.76-1.558-.773-2.511l2.768-.077c.052.824.361 1.468.927 1.918.567.464 1.326.695 2.266.695.863 0 1.558-.18 2.06-.528a1.71 1.71 0 0 0 .76-1.481c0-.489-.167-.889-.489-1.172-.322-.296-.734-.515-1.236-.657s-1.211-.309-2.112-.476c-1.095-.219-1.97-.476-2.627-.773s-1.146-.695-1.494-1.21c-.335-.515-.502-1.185-.502-2.022 0-.888.245-1.661.734-2.331s1.146-1.185 1.983-1.545 1.764-.541 2.781-.541c1.056 0 1.996.18 2.821.554s1.48.888 1.957 1.558.721 1.455.76 2.344l-2.756.155c-.065-.747-.348-1.326-.837-1.738s-1.133-.618-1.932-.618c-.811 0-1.455.167-1.919.502-.477.335-.708.811-.708 1.429 0 .476.142.85.425 1.133.283.27.657.476 1.107.605a21.33 21.33 0 0 0 1.906.438l.257.052c1.082.206 1.97.464 2.64.76s1.197.695 1.558 1.198.541 1.172.541 1.983c0 .927-.245 1.738-.747 2.434s-1.185 1.236-2.048 1.61-1.841.567-2.922.567c-1.159.013-2.176-.18-3.065-.58zM107.348 2.77h9.709v2.408h-6.889v3.747h5.627v2.253h-5.627v3.889h7.133v2.408h-9.953V2.77zm14.409 13.907a6.14 6.14 0 0 1-2.459-2.627c-.567-1.133-.863-2.434-.863-3.915 0-1.494.296-2.807.876-3.94s1.403-1.996 2.472-2.614 2.318-.927 3.747-.927c1.121 0 2.112.219 3 .644s1.61 1.03 2.163 1.816.902 1.713 1.031 2.756l-2.846.155c-.206-.966-.618-1.713-1.236-2.24s-1.378-.798-2.292-.798c-.837 0-1.558.219-2.164.657s-1.068 1.043-1.39 1.816-.476 1.674-.476 2.678.154 1.893.476 2.678c.322.773.786 1.378 1.39 1.816.606.425 1.327.644 2.164.644.914 0 1.674-.257 2.279-.785s1.018-1.275 1.224-2.253l2.845.142c-.142 1.069-.49 1.996-1.043 2.781a5.39 5.39 0 0 1-2.163 1.815c-.888.425-1.88.631-2.988.631-1.416 0-2.678-.309-3.747-.927zm13.276-.683c-1.004-1.082-1.507-2.653-1.507-4.739V2.77h2.846v8.64c0 1.288.244 2.24.746 2.859.491.618 1.275.94 2.357.94s1.868-.309 2.37-.94c.502-.618.747-1.571.747-2.859V2.77h2.845v8.486c0 2.086-.502 3.657-1.507 4.739s-2.485 1.622-4.442 1.622c-1.97-.013-3.451-.541-4.455-1.622zm19.43-3.683h-3.709v5.176h-2.819V2.77h6.219c1.043 0 1.957.193 2.756.592s1.416.953 1.853 1.661c.438.721.658 1.558.658 2.511a4.02 4.02 0 0 1-.452 1.893c-.297.567-.747 1.03-1.325 1.391s-1.275.592-2.1.695v.322h1.777l2.897 5.64h-3.115l-2.64-5.163zm-.554-2.331c.798 0 1.442-.219 1.906-.657.476-.438.708-1.03.708-1.79 0-.502-.103-.94-.322-1.301s-.514-.657-.914-.85a3.1 3.1 0 0 0-1.378-.296h-3.168V9.98h3.168zm12.812-4.803v9.889h2.653v2.408h-8.138v-2.408h2.653V5.177h-2.653V2.77h8.138v2.408h-2.653zm8.293 0h-4.378V2.77h11.601v2.408h-4.365v12.297h-2.846V5.177h-.012zm16.148 7.495v4.816h-2.832V12.71l-5.396-9.953h3.322l3.31 6.876h.308l3.528-6.876h3.156l-5.396 9.915z"/></g><defs><clipPath id="A"><path fill="#fff" transform="translate(23.414 2.427)" d="M0 0h173.586v15.34H0z"/></clipPath></defs></svg>
